X:1
T:Title
%%score { ( 1 3 ) | ( 2 4 ) }
L:1/8
Q:1/4=90
M:6/8
K:C
V:1 treble nm="Grand Piano"
V:3 treble 
V:2 bass 
V:4 bass 
V:1
 [EG][_E^F][=EG] [=FA]2 [EG] | [Ec]G[^FA] [=FB]3 | [B,DF][B,^CE][B,DF] B2 A | GAF E3 | EEE B2 B | %5
w: Samson~Hodges * * * *|||||
 BcB [A,CA]3 | [D^FA][DGB][DFc] [Gd]dG | cA[D^FB] [B,=FG]3 | [G,CE][EG]>[EG] [EG][DF]E | F6 | %10
w: |||||
 FA>A AG^F | G2- [EG-] [EG]3 | .E_E=E .FEF | .G^FG A3 | [Ac][GB]A G e2 | dc[DFB] [CEc]3 |] %16
w: ||||||
V:2
 [C,C][C,C][C,C] [C,C]2 [C,C] | [C,C][E,C][_E,C] [D,G,]3 | G,,G,,G,,[K:treble] [G,DF]2 [G,CF] | %3
 [G,B,F][G,CF][G,D][K:bass] [C,G,C]3 | [E,^G,D][E,G,D][E,G,D] [E,G,D]2 [E,G,D] | %5
 [E,^G,D][E,G,E][E,G,D] A,,3 | C,B,,A,, z G[B,,B,] | A,CD, G,,3 | C,[C,C]>[C,C] [C,C][C,C][C,C] | %9
 [D,G,B,]2 [G,,G,] .[D,G,]3 | [G,B,D][G,B,F]>[G,B,F] [G,B,F][G,B,E][K:bass][G,B,_E] | %11
 [C,C]2 [C,G,] .[C,C]3 | .G,3 .[G,B,]3 | .[E,G,C][_E,A,C][=E,_B,C] [F,A,C]3 | %14
 [F,A,][F,B,][K:treble][F,CF] [G,CE] [G,CG]2 | .B,3[K:bass] z3 |] %16
V:3
 x6 | x6 | x6 | x6 | x6 | x6 | z3 .D3 | .^F3 z3 | x6 | z2 B, .B,3 | x6 | .E3 z3 | x6 | x6 | x6 | %15
 x6 |] %16
V:4
 x6 | x6 | x3[K:treble] x3 | x3[K:bass] x3 | x6 | x6 | z3 .B,,3 | .D,3 z3 | x6 | x6 | %10
 x5[K:bass] x | x6 | [C,C]-[C,^F,C][C,G,C] D,^C,[D,G,B,] | x6 | x2[K:treble] x4 | %15
 [G,F]-[G,CF][K:bass]G,, C,3 |] %16

